X: 806
T: Queen's Polka
B: jims roots
M:4/4
L:1/8
R: Reel
Q: 1/4=100
K:D
V:1 
"Em"E4E2GA|B2A2F2E2|"D"D4D2FG|A2F2E2D2|
"Em"E4E2GA|B2A2F2A2|"G"BcdB "D"A2F2|"Em" E6:|
|:A2|"Em"B2e2e2de|f2 e2d2A2|"G"B2c2d2e2|d2B2B2A2|
"Em"B2e2e2de|f2e2d2A2|"G"BcdB "D"A2F2|"Em"E6:|
% abcbook-tune_id 6298c2790f51278bda68912a


% abcbook-boost 0
% abcbook-tablature 
% abcbook-transpose 
% abcbook-lastupdated 1654178426702
% abcbook-soundfonts 
% abcbook-repeats 1


